X:1
T:Title
%%score 1 { 2 | 3 }
L:1/8
Q:1/4=100
M:4/4
K:Eb
V:1 treble nm="Grand Piano, Soprano"
V:2 bass nm="Choir Pad, Christ Is Near Me"
V:3 bass 
V:1
 [EB]2 [EB]2 [EG]>[FA] [GB]2 | [Ge]>[Bd] [Ac]2 [Ae]>[Ac] [GB]2 | [GB]2 [FB]2 [DF]>[EG] [FA]2 | %3
w: By~Anthony~Johnson~Showalter * * * *|||
 [GB]>[FA] [EG]6 | [EB]2 [EB]2 [EG]>[FA] [GB]2 | [Ge]>[Bd] [Ac]2 [Ae]>[Ac] [GB]2 | %6
w: |||
 [GB]2 [Ac]2 [Ac]>[Ac] [GB]2 | [Fd]>[Fd] [Ge]6 | [Ge]2 [Fd]6 | [DF]>[EG] [FA]2 [Ac]2 [GB]2 | %10
w: ||||
 [EG]2 [GB]>[FA] [FA]>[=EG] [FA]2 | [Ac]2 [Ac]>[GB] [GB]>[_G=A] [=GB]2 | [Ge]2 [Fd]6 | %13
w: |||
 [Ac]>[Ad] [Ge]2 [Ac]2 [GB]2 | E>[EF] [EG]2 [EB]>[FA] [EG]2 | [DF]>[DF] E6- | E2 z2 z4 |] %17
w: ||||
V:2
 G,2 G,2 B,>B, B,2 | B,>[K:treble]E E2 C>E E2 | E2 D2[K:bass] B,>B, B,2 | B,>B, B,6 | %4
 G,2 G,2 B,>B, B,2 | B,>[K:treble]D E2 C>E E2 | E2 E2 E>E E2 | B,>B, B,6 | B,2 B,2 B,>B, B,2 | %9
 B,>B, B,2 B,2 B,2 | B,2 B,>B, B,>B, B,2 | D2 E>E E>E E2 | B,2 B,2 B,>B, B,2 | %13
 B,>B, B,2[K:treble] CD E2 | G,>A,[K:bass] B,2 A,>C B,2 | A,>A, G,6- | G,2 z2 z4 |] %17
V:3
 E,2 E,2 E,>E, E,2 | E,>G, A,2 A,>A, E,2 | E,2 B,,2 B,,>B,, B,,2 | B,,>B,, E,6 | %4
 E,2 E,2 E,>E, E,2 | E,>G, A,2 A,>A, E,2 | E,2 A,2 A,>A, B,2 | B,,>B,, E,6 | E,2 F,2 B,,>B,, D,2 | %9
 B,,>B,, C,2 D,2 E,2 | E,2 B,,>B,, B,,>B,, B,,2 | B,,2 E,>E, E,>E, E,2 | E,2 F,2 B,,>B,, D,2 | %13
 B,,>B,, E,2 E,2 E,2 | E,>E, E,2 F,>A, z2 | B,,>B,, E,6- | E,2 z2 z4 |] %17

